X: 16427
T: Had She Been Aye
R: barndance
M: 4/4
K: Dminor
F2 E>D D3 E|F2 G>F A2 C2|F2 ED D3 E|F2 G>F A3 G|
F2 ED D3 E|F2 GA c>B A2|f2 ed dc AG|F2 E2 {D}D3||
A|A2 A=B c2 _BA|f2 ed dc A2|A2 A=B c2 _BA|f2 ed d3 A|
A2 A=B c2 _BA|f2 ed dc A2|f2 ed cB AG|F2 E2 {D}D4||

